X:9701
T:Liveing Hall. BF11.14
M:6/8
Q:120
C:Browne A hand
S:MS11,c1800?.,Browne Coll.,Lakes
R:Jig
O:England
A:Lakes
Z:vmp.Chris Partington
K:A
A2AB2B|c2d ecA|F2Fd2c|BcB GFE|!
A2AB2B|c2d ecA|Fdc BAG|A3A,3::!
e2ef2f|e2a ecA|e2ef2f|ecAB3|!
e2ef2f|e2a ecA|fag gf^d|e3E3:|]


